X: 3
T: Morrison's Jig (J-26)
I: Morrison's Jig	J-26	E Dor	jig
M: 6/8
R: jig
K: Edor
"Em"E3 BEB| EBE "D"AFD| "Em"E3 BEB| "D"dcB AGF|
"Em"E3 BEB| EBE "D"AFD| "G"G2G FGA| "D"dAG FED :|
"Em"Bee fee| aee "D"fed| "Em"Bee fee| "D"fag fed|
"Em"Bee fee| bee "D"fed| edc d2A| "B7"BAG F3|
"Em"Bee fee| aee "D"fed| "Em"Bee fee| "D"faf def|
"G"g2g gfe| def g2d| "D"edc d2A| "B7"BAG F3|] "Em - go out on"HE4|]
%%text 10/27/99 

#include "LeftHeader.h"
%%footer 03/24/99 For use only by Roaring Jelly members
% ---------- set 50 ----------
% Reel des Onions (G) / St. Antoinne (A) / Caribou (Edor)
%%text Set 50
%%scale .75
